icon/pk/hand-drag.svg

<svg viewBox="0 0 48 48" fill="none" xmlns="http://www.w3.org/2000/svg" height="1em" width="1em">
  <path d="M9.58303 27.1824C7.86719 28.3542 7.00928 30.2934 7.00928 33.0002C7.00928 37.0602 12.0001 44.0002 16.5006 44.0002C21.001 44.0002 23.6111 44.0002 28.016 44.0002C32.421 44.0002 35.0965 40.1495 35.0965 37.0602C35.0965 32.9069 35.0965 28.7536 35.0965 24.6002C35.0965 22.8072 33.6456 21.3522 31.8525 21.3472C30.0659 21.3422 28.6135 22.7865 28.6085 24.5731C28.6085 24.5761 28.6085 24.5791 28.6085 24.5821V24.6836" stroke="black" stroke-width="4" stroke-linecap="round"/>
  <path d="M10.9814 29.4453V7.66246C10.9814 5.88568 12.4218 4.44531 14.1986 4.44531C15.9754 4.44531 17.4157 5.88568 17.4157 7.66246V23.6479" stroke="black" stroke-width="4" stroke-linecap="round"/>
  <path d="M17.4155 24.0001V19.8076C17.4155 18.2589 18.671 17.0034 20.2197 17.0034C21.7684 17.0034 23.0239 18.2589 23.0239 19.8076V24.4272" stroke="black" stroke-width="4" stroke-linecap="round" stroke-linejoin="round"/>
  <path d="M23 24.6583V21.8076C23 20.2589 24.2555 19.0034 25.8042 19.0034C27.3529 19.0034 28.6084 20.2589 28.6084 21.8076V25.0034" stroke="black" stroke-width="4" stroke-linecap="round" stroke-linejoin="round"/>
  <path d="M11 8H41" stroke="black" stroke-width="4" stroke-linecap="round"/>
  <path d="M36 12.5L37.6667 11L41 8L37.6667 5L36 3.5" stroke="black" stroke-width="4" stroke-linecap="round" stroke-linejoin="round"/>
</svg>

<svg width="48" height="48" fill="none" xmlns="http://www.w3.org/2000/svg"><path d="M9.583 27.182C7.867 28.354 7.009 30.293 7.009 33c0 4.06 4.991 11 9.492 11h11.515c4.405 0 7.08-3.85 7.08-6.94V24.6a3.253 3.253 0 0 0-3.243-3.253 3.235 3.235 0 0 0-3.245 3.226v.11" stroke="#000" stroke-width="4" stroke-linecap="round"/><path d="M10.981 29.445V7.662a3.217 3.217 0 0 1 6.435 0v15.986" stroke="#000" stroke-width="4" stroke-linecap="round"/><path d="M17.416 24v-4.192a2.804 2.804 0 0 1 5.608 0v4.62" stroke="#000" stroke-width="4" stroke-linecap="round" stroke-linejoin="round"/><path d="M23 24.658v-2.85a2.804 2.804 0 0 1 5.608 0v3.195" stroke="#000" stroke-width="4" stroke-linecap="round" stroke-linejoin="round"/><path d="M11 8h30" stroke="#000" stroke-width="4" stroke-linecap="round"/><path d="m36 12.5 1.667-1.5L41 8l-3.333-3L36 3.5" stroke="#000" stroke-width="4" stroke-linecap="round" stroke-linejoin="round"/></svg>
